images/icons/qoute.svg

<svg width="65" height="46" viewBox="0 0 65 46" fill="none" xmlns="http://www.w3.org/2000/svg">
<path d="M5.77057 42.0347C2.01587 38.3552 0 34.2284 0 27.5388C0 15.7672 8.95659 5.21649 21.9814 0L25.2367 4.63464C13.0795 10.7021 10.7027 18.5756 9.75492 23.5398C11.7125 22.6048 14.2751 22.2786 16.7868 22.4938C23.363 23.0555 28.5466 28.0366 28.5466 34.2284C28.5466 37.3504 27.2024 40.3446 24.8097 42.5522C22.417 44.7598 19.1718 46 15.788 46C11.8765 46 8.13639 44.352 5.77057 42.0347ZM42.2239 42.0347C38.4692 38.3552 36.4534 34.2284 36.4534 27.5388C36.4534 15.7672 45.41 5.21649 58.4348 0L61.69 4.63464C49.5328 10.7021 47.1561 18.5756 46.2083 23.5398C48.1658 22.6048 50.7285 22.2786 53.2401 22.4938C59.8163 23.0555 65 28.0366 65 34.2284C65 37.3504 63.6558 40.3446 61.2631 42.5522C58.8704 44.7598 55.6251 46 52.2413 46C48.3299 46 44.5898 44.352 42.2239 42.0347Z" fill="url(#paint0_linear_513_16)"/>
<defs>
<linearGradient id="paint0_linear_513_16" x1="0" y1="0" x2="60.861" y2="50.7419" gradientUnits="userSpaceOnUse">
<stop stop-color="#05668D"/>
<stop offset="0.34375" stop-color="#028090"/>
<stop offset="0.625" stop-color="#00A896"/>
<stop offset="1" stop-color="#02C39A"/>
</linearGradient>
</defs>
</svg>

<svg width="65" height="46" fill="none" xmlns="http://www.w3.org/2000/svg"><path d="M5.77 42.035C2.017 38.355 0 34.228 0 27.539 0 15.767 8.957 5.216 21.981 0l3.256 4.635C13.08 10.702 10.703 18.575 9.755 23.54c1.957-.935 4.52-1.261 7.032-1.046 6.576.561 11.76 5.543 11.76 11.734 0 3.122-1.345 6.117-3.737 8.324C22.417 44.76 19.172 46 15.788 46c-3.912 0-7.652-1.648-10.017-3.965Zm36.454 0c-3.755-3.68-5.77-7.807-5.77-14.496 0-11.772 8.956-22.323 21.98-27.539l3.256 4.635c-12.157 6.067-14.534 13.94-15.482 18.905 1.958-.935 4.52-1.261 7.032-1.046C59.816 23.055 65 28.037 65 34.228c0 3.122-1.344 6.117-3.737 8.324C58.87 44.76 55.625 46 52.241 46c-3.911 0-7.651-1.648-10.017-3.965Z" fill="url(#a)"/><defs><linearGradient id="a" x1="0" y1="0" x2="60.861" y2="50.742" gradientUnits="userSpaceOnUse"><stop stop-color="#05668D"/><stop offset=".344" stop-color="#028090"/><stop offset=".625" stop-color="#00A896"/><stop offset="1" stop-color="#02C39A"/></linearGradient></defs></svg>
